images/vectors/search.svg

<svg width="21" height="20" viewBox="0 0 21 20" fill="none" xmlns="http://www.w3.org/2000/svg">
<path d="M19.8928 18.0083L16.1928 14.3287C17.1928 13.0359 17.8928 11.3453 17.8928 9.4558C17.8928 5.08011 14.2928 1.5 9.89282 1.5C5.49282 1.5 1.89282 5.17956 1.89282 9.55525C1.89282 13.9309 5.49282 17.511 9.89282 17.511C11.6928 17.511 13.3928 16.9144 14.7928 15.8204L18.4928 19.5L19.8928 18.0083ZM9.89282 15.5221C6.59282 15.5221 3.89282 12.837 3.89282 9.55525C3.89282 6.27348 6.59282 3.5884 9.89282 3.5884C13.1928 3.5884 15.8928 6.27348 15.8928 9.55525C15.8928 12.837 13.1928 15.5221 9.89282 15.5221Z" fill="black"/>
</svg>

<svg xmlns="http://www.w3.org/2000/svg" width="21" height="20" fill="none" viewBox="0 0 21 20"><path fill="#000" d="m19.893 18.008-3.7-3.68c1-1.292 1.7-2.983 1.7-4.872 0-4.376-3.6-7.956-8-7.956s-8 3.68-8 8.055c0 4.376 3.6 7.956 8 7.956 1.8 0 3.5-.597 4.9-1.69l3.7 3.679 1.4-1.492Zm-10-2.486c-3.3 0-6-2.685-6-5.967 0-3.282 2.7-5.967 6-5.967s6 2.685 6 5.967c0 3.282-2.7 5.967-6 5.967Z"/></svg>
